!!!COM: Hugo Wolf
!!!CNT: Deutscher
!!!TXO: Deutsche 
!!!OTL: Cophtisches Lied II
!!!ODT: 1888/12/28
!!!ONM: No. 15
!!!LYR: Johann Wolfgang von Goethe
!!!ENC: Brian Bice
!!!YOR: 45 Songs on Poems of Goethe and Eichendorff, Dover Publications, 1995
!!NB: Vocal melody and text only encoded.
**kern	**silbe
*clefG2	*
*k[b-]	*
*M4/4	*
=1	=1
4r	.
{4a	{Geh!
8.r	.
16a	Ge-
[4a	-hor-
=2	=2
8a]	|
8g	-che
8f	mei-
8e	-nen
4e	Win-
4d#}	-ken,}
=3	=3
4r	.
{[4a	{nut-
8a]	|
8cc	-ze
[4bn	dei-
=4	=4
8bn]	|
8a	-ne
8g	jun-
8f#	-gen
4e#	Ta-
4g#}	-ge,}
=5	=5
8r	.
{4cc#	{ler-
8cc#	-ne
4cc#	zei-
4cc#	-tig
=6	=6
4f#	klu2-
4cc#	-ger
4f#}	sein;}
4r	.
=8	=8
2r	.
4r	.
{8c	{auf
8c	des
=9	=9
4c	Glu2ck-
4c	-es
4.bn	gro-
8cc	-sser
=10	=10
4cc	Wa-
4c}	-ge}
{4c	{steht
4c	die
=11	=11
4c	Zun-
4a-	-ge
4g	sel-
4f	-ten
=12	=12
2e}	ein;}
2r	.
=16	=16
*k[f#]	*
2r	.
4r	.
{8d	{Du
8d	musst
=17	=17
4.g	stei-
8g	-gen
4g	o-
4b	-der
=18	=18
4d#	sin-
4d#}	-ken,}
4r	.
{8d#	{du
8d#	musst
=19	=19
4.cc	herr-
8cc	-schen
4cc	und
4b	ge-
=20	=20
4a#	-win-
4f#}	-nen,}
{4g	{o-
4f#	-der
=21	=21
4.fn	die-
8e	-nen
4e-	und
4d	ver-
=22	=22
4c#	-lie-
4e}	-ren,}
{[2cc#	{lei-
=23	=23
4.cc#]	|
8cc#	-den
8cc#	o-
8cc#	-der
8cc#	tri-
8cc#	-um-
=24	=24
4dd	-phie-
4d}	-ren,}
{[2b-	{Am-
=25	=25
4b-]	|
4a	-bos
4cc#	o-
4dd	-der
=26	=26
[2.ee	Ham-
8ee]	|
8dd	-mer
=27	=27
2.dd}	sein.}
4r	.
*-	*-
